X: 10861
M: C|
L: 1/8
K: Bb
|:\
u(B>c) |\
d>d(d>B) (c>f)f>A | (B>A)B>d (c>A)B>G | (F>G)F>E (D>F)B>c | (d<c)e>d c2B>c |
d>d(d>B) (c>f)f>A | (B>A)B>d (c>A)B>G | (F>G)F>E (D>F)B>c | (d>c)G>A B2 :|
|: u(B>c) |\
(d>B)B>c (d>g)g>f | (d>B)B>c (d>B)B>d | (c>A)A>B (A>c)f>d | c>AB>G F2((3FGA) |


